X:20
T:Go to the devel and Shake your Self. WCF.020
M:6/8
L:1/8
Q:3/8=120
S:Wm Clarke MS, Feltwell, 1858
O:England
A:Norfolk
N:Check key – may be C. Bar 8 needs a dot on crochet
Z:Transcription Lyn Law 04/2006
K:C
“_Key D in MS”Gcc cBA|GAG GFG|Gcc c2d|ecA A3|!
Gcc cBA|GAG GFG|cec dfd|dcc c2||!
fec cBc|AGG G3|gfd dcd|cAA A3|!
Acc cBA|GAA AFA|ced dfd|edd d2:|]

